src/assets/Symbol.svg

<svg width="15" height="15" viewBox="0 0 15 15" fill="none" xmlns="http://www.w3.org/2000/svg">
<path d="M7.5 0.109375C11.5137 0.109375 14.7656 3.36133 14.7656 7.375C14.7656 11.3887 11.5137 14.6406 7.5 14.6406C3.48633 14.6406 0.234375 11.3887 0.234375 7.375C0.234375 3.36133 3.48633 0.109375 7.5 0.109375ZM7.5 13.2344C10.7227 13.2344 13.3594 10.627 13.3594 7.375C13.3594 4.15234 10.7227 1.51562 7.5 1.51562C4.24805 1.51562 1.64062 4.15234 1.64062 7.375C1.64062 10.627 4.24805 13.2344 7.5 13.2344ZM9.28711 10.1875L6.79688 8.37109C6.70898 8.3125 6.67969 8.19531 6.67969 8.10742V3.27344C6.67969 3.09766 6.82617 2.92188 7.03125 2.92188H7.96875C8.14453 2.92188 8.32031 3.09766 8.32031 3.27344V7.43359L10.2539 8.86914C10.4297 8.98633 10.459 9.19141 10.3418 9.36719L9.78516 10.0996C9.66797 10.2754 9.46289 10.3047 9.28711 10.1875Z" fill="#ABABAB"/>
</svg>

<svg xmlns="http://www.w3.org/2000/svg" width="15" height="15" fill="none" viewBox="0 0 15 15"><path fill="#ababab" d="M7.5.11a7.264 7.264 0 0 1 7.266 7.265A7.264 7.264 0 0 1 7.5 14.641 7.264 7.264 0 0 1 .234 7.375 7.264 7.264 0 0 1 7.5.109m0 13.124a5.86 5.86 0 0 0 5.86-5.859c0-3.223-2.637-5.86-5.86-5.86a5.86 5.86 0 0 0-5.86 5.86 5.84 5.84 0 0 0 5.86 5.86m1.787-3.046L6.797 8.37c-.088-.059-.117-.176-.117-.264V3.273c0-.175.146-.351.351-.351h.938c.176 0 .351.176.351.351v4.16l1.934 1.436c.176.117.205.322.088.498l-.557.733c-.117.175-.322.205-.498.088"/></svg>
